assets/icon2.svg

<?xml version="1.0" encoding="UTF-8"?>
<svg width="104px" height="104px" viewBox="0 0 104 104" version="1.1" xmlns="http://www.w3.org/2000/svg" xmlns:xlink="http://www.w3.org/1999/xlink">
    <!-- Generator: Sketch 54.1 (76490) - https://sketchapp.com -->
    <title>icon2</title>
    <desc>Created with Sketch.</desc>
    <g id="Landing-podcast" stroke="none" stroke-width="1" fill="none" fill-rule="evenodd">
        <g id="Landing-podcast_Mobile" transform="translate(-108.000000, -4323.000000)" fill-rule="nonzero">
            <g id="topicos" transform="translate(0.000000, 4004.000000)">
                <g id="2" transform="translate(0.000000, 306.000000)">
                    <g id="icon2" transform="translate(108.000000, 13.000000)">
                        <path d="M34.7742978,39.6258844 L18.9515099,39.6258844 C18.4949508,39.6258844 18.0556204,39.8067852 17.7334447,40.1306837 L11.3467858,46.5173425 L10.0201802,46.5173425 C9.30691424,44.5170968 7.41176324,43.0716135 5.16859362,43.0716135 C2.31897567,43.0716135 0,45.3905891 0,48.2402071 C0,51.089825 2.31897567,53.4088007 5.16859362,53.4088007 C7.41176324,53.4088007 9.30691424,51.9633173 10.0201802,49.9630716 L12.0600518,49.9630716 C12.5166109,49.9630716 12.9559413,49.7821708 13.278117,49.4582723 L19.6647758,43.0716135 L34.7742978,43.0716135 C35.4875638,45.0718592 37.3827148,46.5173425 39.6258844,46.5173425 C40.9352614,46.5173425 42.1171465,46.0125432 43.0285418,45.2079655 L50.0492148,49.1136994 C50.0026975,49.3910806 49.9630716,49.6719075 49.9630716,49.9630716 C49.9630716,52.8126896 52.2820473,55.1316652 55.1316652,55.1316652 C57.9812832,55.1316652 60.3002588,52.8126896 60.3002588,49.9630716 C60.3002588,49.6719075 60.260633,49.3910806 60.2141156,49.1136994 L67.2347886,45.2079655 C68.146184,46.0125432 69.328069,46.5173425 70.6374461,46.5173425 C73.487064,46.5173425 75.8060397,44.1983669 75.8060397,41.3487489 C75.8060397,39.1055793 74.3605563,37.2104283 72.3603106,36.4971624 L72.3603106,28.9699672 C74.3605563,28.2567013 75.8060397,26.3615503 75.8060397,24.1183807 C75.8060397,21.2687627 73.487064,18.9497871 70.6374461,18.9497871 C69.328069,18.9497871 68.146184,19.4545864 67.2347886,20.2591641 L60.2141156,16.3534302 C60.260633,16.0777719 60.3002588,15.796945 60.3002588,15.5057808 C60.3002588,12.6561629 57.9812832,10.3371872 55.1316652,10.3371872 C52.2820473,10.3371872 49.9630716,12.6561629 49.9630716,15.5057808 C49.9630716,15.796945 50.0026975,16.0777719 50.0492148,16.3551531 L43.0285418,20.260887 C42.1171465,19.4563092 40.9352614,18.9515099 39.6258844,18.9515099 C37.3827148,18.9515099 35.4875638,20.3969933 34.7742978,22.397239 L19.6647758,22.397239 L13.278117,16.0105802 C12.9559413,15.6866816 12.5166109,15.5057808 12.0600518,15.5057808 L10.0201802,15.5057808 C9.30691424,13.5055351 7.41176324,12.0600518 5.16859362,12.0600518 C2.31897567,12.0600518 0,14.3790274 0,17.2286454 C0,20.0782633 2.31897567,22.397239 5.16859362,22.397239 C7.41176324,22.397239 9.30691424,20.9517557 10.0201802,18.9515099 L11.3467858,18.9515099 L17.7334447,25.3381688 C18.0556204,25.6620673 18.4949508,25.8429681 18.9515099,25.8429681 L34.7742978,25.8429681 C35.2946029,27.3022343 36.4437536,28.451385 37.9030198,28.9716901 L37.9030198,31.0115617 L10.0201802,31.0115617 C9.30691424,29.011316 7.41176324,27.5658326 5.16859362,27.5658326 C2.31897567,27.5658326 0,29.8848083 0,32.7344262 C0,35.5840442 2.31897567,37.9030198 5.16859362,37.9030198 C7.41176324,37.9030198 9.30691424,36.4575365 10.0201802,34.4572908 L37.9030198,34.4572908 L37.9030198,36.4971624 C36.4437536,37.0174675 35.2946029,38.1666181 34.7742978,39.6258844 Z M5.16859362,49.9630716 C4.21929525,49.9630716 3.44572908,49.1895054 3.44572908,48.2402071 C3.44572908,47.2909087 4.21929525,46.5173425 5.16859362,46.5173425 C6.11789198,46.5173425 6.89145815,47.2909087 6.89145815,48.2402071 C6.89145815,49.1895054 6.11789198,49.9630716 5.16859362,49.9630716 Z M5.16859362,18.9515099 C4.21929525,18.9515099 3.44572908,18.1779437 3.44572908,17.2286454 C3.44572908,16.279347 4.21929525,15.5057808 5.16859362,15.5057808 C6.11789198,15.5057808 6.89145815,16.279347 6.89145815,17.2286454 C6.89145815,18.1779437 6.11789198,18.9515099 5.16859362,18.9515099 Z M5.16859362,34.4572908 C4.21929525,34.4572908 3.44572908,33.6837246 3.44572908,32.7344262 C3.44572908,31.7851279 4.21929525,31.0115617 5.16859362,31.0115617 C6.11789198,31.0115617 6.89145815,31.7851279 6.89145815,32.7344262 C6.89145815,33.6837246 6.11789198,34.4572908 5.16859362,34.4572908 Z M39.6258844,43.0716135 C38.676586,43.0716135 37.9030198,42.2980473 37.9030198,41.3487489 C37.9030198,40.3994506 38.676586,39.6258844 39.6258844,39.6258844 C40.5751827,39.6258844 41.3487489,40.3994506 41.3487489,41.3487489 C41.3487489,42.2980473 40.5751827,43.0716135 39.6258844,43.0716135 Z M43.0285418,27.9793201 L50.0492148,31.885054 C50.0026975,32.1624352 49.9630716,32.4432621 49.9630716,32.7344262 C49.9630716,33.0255903 50.0026975,33.3064173 50.0492148,33.5837984 L43.0285418,37.4895324 C42.5392483,37.0588162 41.9741487,36.7211348 41.3487489,36.4971624 L41.3487489,28.9699672 C41.9741487,28.7477177 42.5409712,28.4117591 43.0285418,27.9793201 Z M67.2347886,37.4895324 L60.2141156,33.5837984 C60.260633,33.3064173 60.3002588,33.0255903 60.3002588,32.7344262 C60.3002588,32.4432621 60.260633,32.1624352 60.2141156,31.885054 L67.2347886,27.9793201 C67.7240821,28.4100362 68.2891817,28.7477177 68.9145815,28.9716901 L68.9145815,36.4988852 C68.2891817,36.7211348 67.7223593,37.0570934 67.2347886,37.4895324 Z M44.7083348,40.4993767 L51.7290078,36.5936428 C52.2183013,37.0243589 52.7834009,37.3620404 53.4088007,37.5860128 L53.4088007,45.1132079 C52.7834009,45.3371803 52.2165784,45.6731389 51.7290078,46.1055779 L44.7083348,42.199844 C44.7548521,41.9207399 44.794478,41.639913 44.794478,41.3487489 C44.794478,41.0575848 44.7548521,40.7767579 44.7083348,40.4993767 Z M55.1316652,31.0115617 C56.0809636,31.0115617 56.8545298,31.7851279 56.8545298,32.7344262 C56.8545298,33.6837246 56.0809636,34.4572908 55.1316652,34.4572908 C54.1823669,34.4572908 53.4088007,33.6837246 53.4088007,32.7344262 C53.4088007,31.7851279 54.1823669,31.0115617 55.1316652,31.0115617 Z M56.8545298,37.5860128 C57.4799296,37.3620404 58.046752,37.0260818 58.5343227,36.5936428 L65.5549957,40.4993767 C65.5084783,40.7767579 65.4688525,41.0575848 65.4688525,41.3487489 C65.4688525,41.639913 65.5084783,41.9207399 65.5549957,42.1981211 L58.5343227,46.103855 C58.0450292,45.6731389 57.4799296,45.3354575 56.8545298,45.1114851 L56.8545298,37.5860128 L56.8545298,37.5860128 Z M65.5549957,24.9694758 L58.5343227,28.8752097 C58.0450292,28.4444935 57.4799296,28.1068121 56.8545298,27.8828397 L56.8545298,20.3556445 C57.4799296,20.1316721 58.046752,19.7957135 58.5343227,19.3632745 L65.5549957,23.2690085 C65.5084783,23.5481125 65.4688525,23.8289394 65.4688525,24.1201035 C65.4688525,24.4112676 65.5084783,24.6920946 65.5549957,24.9694758 Z M53.4088007,27.8828397 C52.7834009,28.1068121 52.2165784,28.4427707 51.7290078,28.8752097 L44.7083348,24.9694758 C44.7548521,24.6920946 44.794478,24.4112676 44.794478,24.1201035 C44.794478,23.8289394 44.7548521,23.5481125 44.7083348,23.2707313 L51.7290078,19.3649974 C52.2183013,19.7957135 52.7834009,20.133395 53.4088007,20.3573674 L53.4088007,27.8828397 Z M55.1316652,51.6859362 C54.1823669,51.6859362 53.4088007,50.91237 53.4088007,49.9630716 C53.4088007,49.0137733 54.1823669,48.2402071 55.1316652,48.2402071 C56.0809636,48.2402071 56.8545298,49.0137733 56.8545298,49.9630716 C56.8545298,50.91237 56.0809636,51.6859362 55.1316652,51.6859362 Z M70.6374461,43.0716135 C69.6881477,43.0716135 68.9145815,42.2980473 68.9145815,41.3487489 C68.9145815,40.3994506 69.6881477,39.6258844 70.6374461,39.6258844 C71.5867444,39.6258844 72.3603106,40.3994506 72.3603106,41.3487489 C72.3603106,42.2980473 71.5867444,43.0716135 70.6374461,43.0716135 Z M70.6374461,22.397239 C71.5867444,22.397239 72.3603106,23.1708052 72.3603106,24.1201035 C72.3603106,25.0694019 71.5867444,25.8429681 70.6374461,25.8429681 C69.6881477,25.8429681 68.9145815,25.0694019 68.9145815,24.1201035 C68.9145815,23.1708052 69.6881477,22.397239 70.6374461,22.397239 Z M55.1316652,13.7829163 C56.0809636,13.7829163 56.8545298,14.5564825 56.8545298,15.5057808 C56.8545298,16.4550792 56.0809636,17.2286454 55.1316652,17.2286454 C54.1823669,17.2286454 53.4088007,16.4550792 53.4088007,15.5057808 C53.4088007,14.5564825 54.1823669,13.7829163 55.1316652,13.7829163 Z M39.6258844,22.397239 C40.5751827,22.397239 41.3487489,23.1708052 41.3487489,24.1201035 C41.3487489,25.0694019 40.5751827,25.8429681 39.6258844,25.8429681 C38.676586,25.8429681 37.9030198,25.0694019 37.9030198,24.1201035 C37.9030198,23.1708052 38.676586,22.397239 39.6258844,22.397239 Z" id="Shape" fill="#00F3BB"></path>
                        <path d="M36.1801553,103.371872 L63.7459879,103.371872 C64.6970091,103.371872 65.4688525,102.600029 65.4688525,101.649008 L65.4688525,89.588956 L87.8660915,89.588956 C88.8171127,89.588956 89.588956,88.8171127 89.588956,87.8660915 L89.588956,67.191717 L101.649008,67.191717 C102.196879,67.191717 102.712015,66.9315645 103.037637,66.4887883 C103.363258,66.0460121 103.458016,65.4774668 103.294343,64.953716 L94.7041408,37.4671351 C94.3595679,27.0127931 89.945589,17.3647517 82.2409387,10.2544897 C74.4466996,3.06325315 64.2904131,-0.547870923 53.6655075,0.0689145815 C41.436615,0.783903365 30.1070578,7.49446074 23.3585974,18.0211631 L26.2599013,19.8801339 C32.4156963,10.2786098 42.7356549,4.158995 53.8688055,3.5077522 C63.5530271,2.93748404 72.8065325,6.23676963 79.9030116,12.7871006 C87.0236107,19.3563831 91.0602823,28.3066644 91.2704718,37.9874402 C91.2773632,38.2854958 91.3652293,38.5663227 91.5133957,38.8092466 L99.305912,63.7459879 L87.8660915,63.7459879 C86.9150702,63.7459879 86.1432269,64.5178312 86.1432269,65.4688525 L86.1432269,72.3603106 L80.9746333,72.3603106 C78.1250154,72.3603106 75.8060397,70.0413349 75.8060397,67.191717 L72.3603106,67.191717 C72.3603106,71.9416545 76.2246958,75.8060397 80.9746333,75.8060397 L86.1432269,75.8060397 L86.1432269,86.1432269 L63.7459879,86.1432269 C62.7949667,86.1432269 62.0231234,86.9150702 62.0231234,87.8660915 L62.0231234,99.9261432 L37.9030198,99.9261432 L37.9030198,98.2601332 C37.9030198,84.3204362 33.7130133,70.0671779 25.7843907,57.0405991 C24.0305146,54.1599696 22.7056318,51.0501991 21.8441995,47.7991538 L18.5121795,48.6812604 C19.4580321,52.2527586 20.9138526,55.6674761 22.8400152,58.8323783 C30.4395707,71.3197004 34.4572908,84.9527275 34.4572908,98.2601332 L34.4572908,101.649008 C34.4572908,102.600029 35.2291341,103.371872 36.1801553,103.371872 Z" id="Path" fill="#0000EC"></path>
                    </g>
                </g>
            </g>
        </g>
    </g>
</svg>

<svg xmlns="http://www.w3.org/2000/svg" viewBox="0 0 104 104">
  <g fill="none" fill-rule="nonzero">
    <path fill="#00F3BB" d="M34.774 39.626H18.952c-.457 0-.896.18-1.219.505l-6.386 6.386H10.02c-.713-2-2.608-3.445-4.851-3.445A5.175 5.175 0 000 48.24a5.175 5.175 0 005.169 5.169c2.243 0 4.138-1.446 4.851-3.446h2.04c.457 0 .896-.18 1.218-.505l6.387-6.386h15.11c.713 2 2.608 3.445 4.85 3.445 1.31 0 2.492-.504 3.404-1.309l7.02 3.906a5.105 5.105 0 00-.086.85 5.175 5.175 0 005.169 5.168 5.175 5.175 0 005.168-5.169c0-.291-.04-.572-.086-.85l7.02-3.905c.912.805 2.094 1.31 3.403 1.31a5.175 5.175 0 005.169-5.17c0-2.242-1.445-4.138-3.446-4.85V28.97c2-.713 3.446-2.608 3.446-4.852a5.175 5.175 0 00-5.169-5.168c-1.309 0-2.49.505-3.402 1.31l-7.02-3.907c.046-.275.085-.556.085-.847a5.175 5.175 0 00-5.168-5.169 5.175 5.175 0 00-5.169 5.169c0 .29.04.572.086.85l-7.02 3.905c-.912-.805-2.094-1.31-3.403-1.31-2.243 0-4.138 1.446-4.852 3.446h-15.11l-6.386-6.386a1.718 1.718 0 00-1.218-.505h-2.04c-.713-2-2.608-3.446-4.851-3.446A5.175 5.175 0 000 17.23a5.175 5.175 0 005.169 5.168c2.243 0 4.138-1.445 4.851-3.445h1.327l6.386 6.386c.323.324.762.505 1.219.505h15.822a5.163 5.163 0 003.129 3.129v2.04H10.02c-.713-2-2.608-3.446-4.851-3.446A5.175 5.175 0 000 32.734a5.175 5.175 0 005.169 5.169c2.243 0 4.138-1.445 4.851-3.446h27.883v2.04a5.163 5.163 0 00-3.129 3.129zM5.17 49.963c-.95 0-1.723-.773-1.723-1.723 0-.95.773-1.723 1.723-1.723.949 0 1.722.774 1.722 1.723 0 .95-.773 1.723-1.722 1.723zm0-31.011c-.95 0-1.723-.774-1.723-1.723 0-.95.773-1.723 1.723-1.723.949 0 1.722.773 1.722 1.723 0 .949-.773 1.723-1.722 1.723zm0 15.505c-.95 0-1.723-.773-1.723-1.723 0-.949.773-1.722 1.723-1.722.949 0 1.722.773 1.722 1.722 0 .95-.773 1.723-1.722 1.723zm34.457 8.615c-.95 0-1.723-.774-1.723-1.723 0-.95.774-1.723 1.723-1.723.95 0 1.723.773 1.723 1.723 0 .949-.774 1.723-1.723 1.723zm3.403-15.093l7.02 3.906a5.105 5.105 0 00-.086.85c0 .29.04.571.086.849l-7.02 3.906a5.178 5.178 0 00-1.68-.993V28.97a5.096 5.096 0 001.68-.99zm24.206 9.51l-7.02-3.905c.046-.278.085-.558.085-.85 0-.29-.04-.572-.086-.849l7.02-3.906c.49.431 1.055.769 1.68.993v7.527a5.096 5.096 0 00-1.68.99zM44.708 40.5l7.021-3.905c.49.43 1.054.768 1.68.992v7.527a5.13 5.13 0 00-1.68.993l-7.02-3.906c.046-.28.085-.56.085-.851 0-.291-.04-.572-.086-.85zm10.424-9.487c.949 0 1.723.773 1.723 1.722 0 .95-.774 1.723-1.723 1.723-.95 0-1.723-.773-1.723-1.723 0-.949.773-1.722 1.723-1.722zm1.723 6.574a5.13 5.13 0 001.68-.992l7.02 3.905a5.105 5.105 0 00-.086.85c0 .29.04.572.086.85l-7.02 3.905a5.178 5.178 0 00-1.68-.993v-7.525zm8.7-12.617l-7.02 3.906a5.178 5.178 0 00-1.68-.992v-7.527a5.13 5.13 0 001.68-.993l7.02 3.906c-.047.28-.086.56-.086.851 0 .291.04.572.086.85zm-12.146 2.914a5.13 5.13 0 00-1.68.992l-7.02-3.906c.046-.277.085-.558.085-.849 0-.291-.04-.572-.086-.85l7.021-3.905c.49.43 1.054.768 1.68.992v7.526zm1.723 23.803c-.95 0-1.723-.774-1.723-1.723 0-.95.773-1.723 1.723-1.723.949 0 1.723.774 1.723 1.723 0 .95-.774 1.723-1.723 1.723zm15.505-8.614c-.949 0-1.722-.774-1.722-1.723 0-.95.773-1.723 1.722-1.723.95 0 1.723.773 1.723 1.723 0 .949-.773 1.723-1.723 1.723zm0-20.675c.95 0 1.723.774 1.723 1.723 0 .95-.773 1.723-1.723 1.723-.949 0-1.722-.774-1.722-1.723 0-.95.773-1.723 1.722-1.723zm-15.505-8.614c.949 0 1.723.773 1.723 1.723 0 .95-.774 1.723-1.723 1.723-.95 0-1.723-.774-1.723-1.723 0-.95.773-1.723 1.723-1.723zm-15.506 8.614c.95 0 1.723.774 1.723 1.723 0 .95-.774 1.723-1.723 1.723-.95 0-1.723-.774-1.723-1.723 0-.95.774-1.723 1.723-1.723z"/>
    <path fill="#0000EC" d="M36.18 103.372h27.566c.951 0 1.723-.772 1.723-1.723v-12.06h22.397c.951 0 1.723-.772 1.723-1.723V67.192h12.06a1.723 1.723 0 001.645-2.238l-8.59-27.487c-.344-10.454-4.758-20.102-12.463-27.213C74.447 3.064 64.29-.548 53.666.07 41.436.784 30.107 7.494 23.359 18.02l2.9 1.86c6.157-9.602 16.477-15.722 27.61-16.373 9.684-.57 18.938 2.729 26.034 9.28 7.12 6.568 11.157 15.519 11.367 25.2.007.297.095.578.243.821l7.793 24.937h-11.44c-.95 0-1.723.772-1.723 1.723v6.891h-5.168a5.175 5.175 0 01-5.169-5.168H72.36c0 4.75 3.865 8.614 8.615 8.614h5.168v10.337H63.746c-.951 0-1.723.772-1.723 1.723v12.06h-24.12V98.26c0-13.94-4.19-28.193-12.119-41.22a35 35 0 01-3.94-9.24l-3.332.881a38.449 38.449 0 004.328 10.151c7.6 12.488 11.617 26.12 11.617 39.428v3.389c0 .951.772 1.723 1.723 1.723z"/>
  </g>
</svg>
